!!!COM: Mozart, Wolfgang Amadeus
!!!OPR: Quartet in D Major
!!!OTL:
!!!OMV: 2
!!!SCT: K 499
!!!SCA: Chronologisch-thematisches Verzeichnis sämtlicher Tonwerke Wolfgang Amade Mozarts (L. von Köchel; 1862, 2/1905, 3/1937, 1947)
!!!YOR: Breitkopf & Härtel Edition
!!!EED: Frances Bennion
!!!ENC: Frances Bennion
!!!CDT: 1756/1/27/-1791/12/5/
!!!OCY: Österreich
!!!YEC: Copyright (c) 1994, 2000 Center for Computer Assisted Research in the Humanities
!!!YEM: Rights to all derivative editions reserved.
!!!YEM: Refer to licensing agreement for further details.
!!!YEN: United States of America
**kern	**kern	**kern	**kern
*k[f#c#]	*k[f#c#]	*k[f#c#]	*k[f#c#]
*D:	*D:	*D:	*D:
*clefG	*clefG	*clefF	*clefC
*M3/4	*M3/4	*M3/4	*M3/4
=0-	=0-	=0-	=0-
2r	2r	2r	2r
4aa	4r	4r	4r
=1	=1	=1	=1
8gg#	8d	2.F#	4DD
8aa	8f#	.	.
8bb	8a	.	4D
8aa	8f#	.	.
4aa	8a	.	4D
.	8f#	.	.
=2	=2	=2	=2
4.aa	8d	2.cc	4D
.	8f#	.	.
.	8a	.	4D
8gg	8f#	.	.
4ff#	8a	.	4D
.	8f#	.	.
=3	=3	=3	=3
4bb	8d	2.b	4D
.	8g	.	.
4ee	8dd	.	4D
.	8g	.	.
4ee	8dd	.	4D
.	8g	.	.
=4	=4	=4	=4
2ee	8d	2.b-	4D
.	8g	.	.
.	8dd	.	4DD
.	8g	.	.
8gg	8dd	.	4DD
8ee	8g	.	.
=5	=5	=5	=5
8dd	8e	[2.a	4DD
8cc#	8g	.	.
8b	8cc#	.	4D
8a	8g	.	.
8bb	8cc#	.	4D
8aa	8g	.	.
=6	=6	=6	=6
8gg#	8f#	4a]	2D
8aa	8a	.	.
8bb	8dd	4f#	.
8aa	8a	.	.
8gg	8dd	4d	4F#
8ff#	8a	.	.
=7	=7	=7	=7
8dd#	8f#	4b	4G
8ee	8g	.	.
8ff#	8a	4B	4E
8ee	8g	.	.
8gg	8e	8.c#	4A
8ee	8g	.	.
.	.	32B	.
.	.	32c#	.
=8	=8	=8	=8
4dd	4f#	4d	4D
4r	2r	4r	4d
8ff#	.	4r	4r
8ee#	.	.	.
=9	=9	=9	=9
8gg	8b	2r	4BB
8ff#	8a#	.	.
4ff#	8cc#	.	4D
.	8b	.	.
4ccc#	4a#	8f#	4F#
.	.	8e#	.
=10	=10	=10	=10
4eee	4cc#	8g	4B
.	.	8f#	.
4ddd	4b	4f#	4BB
8ee	4r	4r	4r
8dd#	.	.	.
=11	=11	=11	=11
8ff#	8d	2r	4GG#
8ee	8c#	.	.
4ee	8e	.	4BB
.	8d	.	.
4bb	4g#	8e	4EE
.	.	8d#	.
=12	=12	=12	=12
4ddd	4gg#	8f#	4AA
.	.	8e	.
4ccc#	4aa	4e	4A
8ee	4cc#	4r	4r
[8eee	.	.	.
=13	=13	=13	=13
8eee]	4dd	2.r	2.r
4ff#	.	.	.
.	4b	.	.
4ddd	.	.	.
.	4cc#	.	.
[8ee	.	.	.
=14	=14	=14	=14
8ee]	4a	2.r	2.r
4ccc#	.	.	.
.	4b	.	.
4dd	.	.	.
.	4g#	.	.
8bb	.	.	.
=15	=15	=15	=15
8cc#	4a	4e	4C#
8aa	.	.	.
8b	4f#	4d	4D
8ff#	.	.	.
8ee	8B	8G#	4E
8g#	8d	8B	.
=16	=16	=16	=16
4b	4g#	4d	2AA
4a	4a	4c#	.
4r	4r	4r	8AA
.	.	.	8GG#
=17	=17	=17	=17
4aa	4cc	2d#	8BB
.	.	.	8AA
4ff#	4b	.	4AA
4dd#	4a	4f#	8AA
.	.	.	8GG#
=18	=18	=18	=18
4gg	8e	2c#	8BB
.	8g	.	8AA
4ee	4b-	.	4AA
4cc#	4a	8g	4AA
.	.	8e	.
=19	=19	=19	=19
4ff	4g#	4d	[2.AA
4dd	4f	4G#	.
4g#	8e	4B	.
.	8d	.	.
=20	=20	=20	=20
8a	4c#	4E	4AA]
8cc#	.	.	.
8dd	2r	2r	2r
8ee	.	.	.
8ff#	.	.	.
8gg	.	.	.
=21	=21	=21	=21
8gg#	8d	2F#	4DD
8aa	8f#	.	.
8bb	8a	.	4D
8aa	8f#	.	.
4aa	8a	4dd	4D
.	8f#	.	.
=22	=22	=22	=22
4.aa	8d	8b	4D
.	8f#	8cc	.
.	8a	8dd	4D
8bb	8f#	8cc	.
4ccc	8a	4cc	4D
.	8f#	.	.
=23	=23	=23	=23
4ddd	8d	4.b	4D
.	8g	.	.
4gg	8b	.	4D
.	8g	8cc	.
4gg	8b	4dd	4D
.	8g	.	.
=24	=24	=24	=24
2gg	8d	4ee	4D
.	8g	.	.
.	8ee	4b-	4DD
.	8g	.	.
8eee	8ee	4b-	4DD
8ddd	8g	.	.
=25	=25	=25	=25
8ddd	8e	4a	4DD
8ccc#	8g	.	.
8bb	8cc#	4e	4D
8aa	8g	.	.
8gg#	8ee	4cc#	4D
8aa	8g	.	.
=26	=26	=26	=26
8bb	8f#	4dd	2D
8aa	8a	.	.
8gg	8dd	4a	.
8ff#	8a	.	.
8ee	8d	4A	4F#
8dd	8a	.	.
=27	=27	=27	=27
8cc#	8a	4d	4G
8b	8g	.	.
8dd#	8f#	4b	4E
8ee	8g	.	.
8gg	8e	8.cc#	4A
8ee	8g	.	.
.	.	32b	.
.	.	32cc#	.
=28	=28	=28	=28
4dd	4f#	4dd	4D
4r	4r	4r	4d
[4aa	4e	4c#	4r
=29	=29	=29	=29
12aa]	4f	4d	2.r
12bb-	.	.	.
12aa	.	.	.
12gg	4r	4r	.
12ff	.	.	.
12ee	.	.	.
12dd	4g	4e	.
12cc#	.	.	.
12ee	.	.	.
=30	=30	=30	=30
4dd	12a	4f	2.r
.	12a	.	.
.	12a	.	.
4dd	12a	4r	.
.	12a	.	.
.	12a	.	.
8.ee	12a	4c#	.
.	12a	.	.
32dd	12a	.	.
32ee	.	.	.
=31	=31	=31	=31
4ff	12a	4d	2.r
.	12a	.	.
.	12a	.	.
4ff	12a	4r	.
.	12a	.	.
.	12a	.	.
8.gg	12dd	4B-	.
.	12dd	.	.
32ff	12dd	.	.
32gg	.	.	.
=32	=32	=32	=32
4aa	4cc#	4A	2r
4r	4r	4a	.
[4aa	4g	4e	4C#
=33	=33	=33	=33
12aa]	4f	4d	4D
12bb-	.	.	.
12aa	.	.	.
12gg	4r	4r	4r
12ff	.	.	.
12ee	.	.	.
12dd	4b-	4g	4E
12cc#	.	.	.
12ee	.	.	.
=34	=34	=34	=34
4dd	12a	4f	4F
.	12dd	.	.
.	12dd	.	.
4dd	12dd	4r	4r
.	12dd	.	.
.	12dd	.	.
8.ee	12dd	4g	4B-
.	12dd	.	.
32dd	12dd	.	.
32ee	.	.	.
=35	=35	=35	=35
4ff	12dd	4a	4A
.	12dd	.	.
.	12dd	.	.
4ff	12d	4r	4r
.	12d	.	.
.	12d	.	.
8.cc#	12g	4e	4AA
.	12g	.	.
32b	12g	.	.
32cc#	.	.	.
=36	=36	=36	=36
4dd	4f	4d	4DD
4r	4r	4r	4D
4r	[4dd	4A	4F#
=37	=37	=37	=37
2r	12dd]	4B-	4G
.	12ee-	.	.
.	12dd	.	.
.	12cc	4r	4r
.	12b-	.	.
.	12a	.	.
[4ccc	12g	8.A	4D
.	12f#	.	.
.	12a	16F#	.
=38	=38	=38	=38
12ccc]	4g	4d	4GG
12ddd	.	.	.
12ccc	.	.	.
12bb-	4r	4r	4r
12aa	.	.	.
12gg	.	.	.
12ff	[4cc	12b-	4G
12ee	.	12g	.
12gg	.	12e	.
=39	=39	=39	=39
4ff	12cc]	4c	4A
.	12dd	.	.
.	12cc	.	.
4r	12b-	4r	4r
.	12a	.	.
.	12g	.	.
[4bb-	12f	8.G	4C
.	12e	.	.
.	12g	16E	.
=40	=40	=40	=40
12bb-]	4f	4c	4FF
12ccc	.	.	.
12bb-	.	.	.
12aa	3cc	4r	12F
12gg	.	.	12G
12ff	.	.	12A
12ee	.	4f	4B-
12dd	12b-	.	.
12ff	12a	.	.
=41	=41	=41	=41
12aa	12f#	8.e	3E
12bb-	12g	.	.
12aa	12a	16f	.
12gg	4b-	4g	.
12ff	.	.	12F
12ee	.	.	12G
12dd	12b-	12g	4A
12cc#	12a	12e	.
12ee	12g	12c#	.
=42	=42	=42	=42
12gg	12e	4cc#	4.D
12aa	12f	.	.
12gg	12e	.	.
12ff	4d	4dd	.
12ee	.	.	.
.	.	.	8E
12dd	.	.	.
12cc	4r	[4d	4F#
12b-	.	.	.
12a	.	.	.
=43	=43	=43	=43
12cc	2r	12d]	4.G
12dd	.	12e	.
12cc	.	12f#	.
12b-	.	[2g	.
12a	.	.	.
.	.	.	8A
12g	.	.	.
12f	[4dd	.	4B-
12e	.	.	.
12d	.	.	.
=44	=44	=44	=44
4a	12dd]	8.g]	4.A
.	12ee	.	.
.	12dd	16f	.
4r	12cc#	4e	.
.	12b	.	.
.	.	.	8B
.	12a	.	.
[4aa	12g	4e	4c#
.	12f	.	.
.	12e	.	.
=45	=45	=45	=45
12aa]	4d	4f	4d
12bb-	.	.	.
12aa	.	.	.
12gg	4r	4f	4d
12ff	.	.	.
12ee	.	.	.
12dd	[4a	8.g	8.e
12cc#	.	.	.
12ee	.	32f	32d
.	.	32g	32e
=46	=46	=46	=46
4dd	12a]	4a	4f
.	12b-	.	.
.	12a	.	.
4dd	12g	4r	2r
.	12f	.	.
.	12e	.	.
8.ee	12d	[4A	.
.	12c#	.	.
32dd	12e	.	.
32ee	.	.	.
=47	=47	=47	=47
4ff	4d	12A]	2r
.	.	12B-	.
.	.	12A	.
4ff	4d	12G	.
.	.	12F	.
.	.	12E	.
8.gg	8.e	12D	[4AA
.	.	12C#	.
32ff	32d	12E	.
32gg	32e	.	.
=48	=48	=48	=48
4aa	4f	4D	12AA]
.	.	.	12BB-
.	.	.	12AA
4r	4f	4D	12GG
.	.	.	12FF
.	.	.	12EE
[4aa	8.g	8.E	12DD
.	.	.	12CC#
.	32f	32D	12EE
.	32g	32E	.
=49	=49	=49	=49
12aa]	12a	4F	4DD
12bb-	12a	.	.
12aa	12a	.	.
12gg	12a	4F	4DD
12ff	12a	.	.
12ee	12a	.	.
12dd	12a	8.G	8.EE
12cc#	12a	.	.
12ee	12a	32F	32DD
.	.	32G	32EE
=50	=50	=50	=50
4dd	12a	4A	4FF
.	12d	.	.
.	12dd	.	.
4dd	12dd	4a	4FF
.	12d	.	.
.	12dd	.	.
8.ee	12dd	4b	8.GG#
.	12d	.	.
32dd	12dd	.	32FF#
32ee	.	.	32GG#
=51	=51	=51	=51
4ff	12dd	12a	4AA
.	12dd	12a	.
.	12dd	12a	.
4ff	12d	12A	4AA
.	12d	12A	.
.	12d	12A	.
8.cc#	12g	12e	4AA
.	12g	12e	.
32b	12g	12e	.
32cc#	.	.	.
=52a	=52a	=52a	=52a
4dd	4f	4d	4DD
4r	4r	4r	4D
4r	4r	4r	4r
=52b	=52b	=52b	=52b
4dd	12f	12d	4BB-
.	12f	12d	.
.	12f	12d	.
4dd	12g	12d	4r
.	12g	12d	.
.	12g	12d	.
8.ee	12g#	12d	4B-
.	12g#	12d	.
32dd	12g#	12d	.
32ee	.	.	.
=53	=53	=53	=53
4ff	12a	12d	4A
.	12a	12d	.
.	12a	12d	.
4ff	12f	12A	4r
.	12f	12A	.
.	12f	12A	.
8.cc#	12e	12G	4AA
.	12e	12G	.
32b	12e	12G	.
32cc#	.	.	.
=54	=54	=54	=54
4dd	4d	12F	4BB-
.	.	12F	.
.	.	12F	.
2r	4d	12F	4r
.	.	12F	.
.	.	12F	.
.	8.e	12B 12D	4GG#
.	.	12B 12D	.
.	32d	12B 12D	.
.	32e	.	.
=55	=55	=55	=55
2r	4f	12A 12D	4AA
.	.	12A 12D	.
.	.	12A 12D	.
.	4f	12A 12D	4r
.	.	12A 12D	.
.	.	12A 12D	.
4aa	8.c#	12G 12E	4AA
.	.	12G 12E	.
.	32B	12G 12E	.
.	32c#	.	.
==	==	==	==
*-	*-	*-	*-
!!!RWG1: This file contains only pitch and duration data.
!!!RWG2: Transposing instruments are not transposed.
!!!RWG3: Spines may have incompatible meters.
!!!RWG4: Durations of rests and tied notes may be interpreted.
!!!RWG: Key is interpreted using the Humdrum key tool.
!!!AFT: stage1
!!!END: 1997/04/15
!!format changes:
!!content changes:
!!public access: complete
!!!KEY: 2562830257
!!!EMD: Converted from MuseData to Humdrum Dec 16, 2000, by Andreas Kornstaedt using muse2kern.
